/* XPM */
static char *_ee17b60614547f7e19ff8a3776f2475w0KASmi2A59UCCEh[] = {
/* columns rows colors chars-per-pixel */
"48 48 17 1 ",
"  c #B86F50",
"1 c #D99359",
"2 c #E4A672",
". c #0E071B",
"X c #5D2C28",
"o c #134C4C",
"O c #1E6F50",
"+ c #704643",
"@ c #33984B",
"# c #D29F70",
"$ c #0069AA",
"% c #5A6988",
"& c #0098DC",
"* c #8B9BB4",
"= c #F6CA9F",
"- c #C0CBDC",
"; c white",
/* pixels */
"222221111122222222221111122222222221111122222222",
"222111111111122211111111111122211111111111122222",
"221111      1111111111      1111111111      1112",
"21           1111            1111           1122",
"2                                            112",
"11                                            11",
"1                                              1",
"1                                              1",
"1                                              1",
"1                                              1",
"1                                              1",
"2                                            112",
"2                                            112",
"2                                            112",
"221                 .......                  122",
"221                .XX+++XX.                 122",
"221               .X+++++++X.                122",
"221               .+++++++++.                122",
"2                .+++++++++++.               112",
"2                .+++++++++++.               112",
"2                .X+++++++++X.               112",
"1                .XXX+++++XXX.                 1",
"1                 .XXXXXXXXX.                  1",
"1                 .XXXXXXXXX.                  1",
"1                  ..XXXXX..                   1",
"1                  .o.....o.                   1",
"1                  .oO@@OOo.                   1",
"2                  .oO@@@Oo.                 112",
"2                 .#oOO@@Oo#.                112",
"2                 .#&$$$$$$#.                112",
"221                .&$$.$$$.                 122",
"221                .XX. .XX.                 122",
"221                                          122",
"221                                          122",
"2                                            112",
"2                                            112",
"2                                            112",
"1                                              1",
"1                                              1",
"1                                              1",
"1                                              1",
"1                                              1",
"1                                              1",
"2                                            112",
"2                                            112",
"221           1111            1111           122",
"222111      111222111      111222111      112222",
"222221111122222222221111122222222221111122222222",
"222221111122222222221111122222222221111122222222",
};
