/* XPM */
static char *_ea6c750bdc84975cb854ff505a33f46hz49fu05DGnqmZHM[] = {
/* columns rows colors chars-per-pixel */
"48 48 3 1 ",
"  c #4A90E2",  /* Azul claro */
". c #357ABD",  /* Azul medio */
"X c #2A5D9E",  /* Azul oscuro */
/* pixels */
"XXXX XXXXXXXXXXXXXXXXXXXXXXXXXXXXXXXXXXX XXXXXXX",
"X  X X X X X X X X X X X X X X X X X X X X X X X",
"X. X .X .X .X .X .X .X .X .X .X .X .X .X .X .X X",
"XXXXXXXXXXXXXXXXX XXXXXXXX XXXXXXXXXXXXXXXXXXXXX",
"X X X X X X X X X X X X X X X X X X X X X X X XX",
"X. X .X .X .X .X .X .X .X .X .X .X .X .X .X .X X",
"X X X X X X X X X X X X X X X X X X X X X X X XX",
"XXXXXXXXXXXXXXXXXXXXXXXXXXXXXXXXXXXXXXXXXXXXXXXX",
"X X X X X X X X X X X X X X X X X X X X X X X XX",
"X. X .X .X .X .X .X .X .X .X .X .X .X .X .X .X X",
"XXXXXXXXXXXXXXXXX XXXXXXXXXXXXXXXXXXXXXXXXXXXXXX",
"X X X X X X X X X X X X X X X X X X X X X X X XX",
"X. X .X .X .X .X .X .X .X .X .X .X .X .X .X .X X",
"X X X X X X X X X X X X X X X X X X X X X X X XX",
"XXXXXXXXXXXXXXXXXXXXXXXXXXXXXXXXXXXXXXXXXXXXXXXX",
"X X X X X X X X X X X X X X X X X X X X X X X XX",
"X. X .X .X .X .X .X .X .X .X .X .X .X .X .X .X X",
"XXXXXXXXXXXXXXXXXXXXXXXXXXXXXXXXXXXXXXXXXXXXXXXX",
"X X X X X X X X X X X X X X X X X X X X X X X XX",
"X. X .X .X .X .X .X .X .X .X .X .X .X .X .X .X X",
"XXXXXXXXXXXXXXXXXXXXXXXXXXXXXXXXXXXXXXXXXXXXXXXX",
"X X X X X X X X X X X X X X X X X X X X X X X XX",
"X. X .X .X .X .X .X .X .X .X .X .X .X .X .X .X X",
"XXXXXXXXXXXXXXXXXXXXXXXXXXXXXXXXXXXXXXXXXXXXXXXX",
"X X X X X X X X X X X X X X X X X X X X X X X XX",
"X. X .X .X .X .X .X .X .X .X .X .X .X .X .X .X X",
"XXXXXXXXXXXXXXXXXXXXXXXXXXXXXXXXXXXXXXXXXXXXXXXX",
"X X X X X X X X X X X X X X X X X X X X X X X XX",
"X. X .X .X .X .X .X .X .X .X .X .X .X .X .X .X X",
"XXXXXXXXXXXXXXXXXXXXXXXXXXXXXXXXXXXXXXXXXXXXXXXX",
"X X X X X X X X X X X X X X X X X X X X X X X XX",
"X. X .X .X .X .X .X .X .X .X .X .X .X .X .X .X X",
"XXXXXXXXXXXXXXXXXXXXXXXXXXXXXXXXXXXXXXXXXXXXXXXX",
"X X X X X X X X X X X X X X X X X X X X X X X XX",
"X. X .X .X .X .X .X .X .X .X .X .X .X .X .X .X X",
"XXXXXXXXXXXXXXXXXXXXXXXXXXXXXXXXXXXXXXXXXXXXXXXX",
"X X X X X X X X X X X X X X X X X X X X X X X XX",
"X. X .X .X .X .X .X .X .X .X .X .X .X .X .X .X X",
"XXXXXXXXXXXXXXXXXXXXXXXXXXXXXXXXXXXXXXXXXXXXXXXX",
"X X X X X X X X X X X X X X X X X X X X X X X XX",
"X. X .X .X .X .X .X .X .X .X .X .X .X .X .X .X X",
"XXXXXXXXXXXXXXXXXXXXXXXXXXXXXXXXXXXXXXXXXXXXXXXX",
"X X X X X X X X X X X X X X X X X X X X X X X XX",
"X. X .X .X .X .X .X .X .X .X .X .X .X .X .X .X X",
"XXXXXXXXXXXXXXXXXXXXXXXXXXXXXXXXXXXXXXXXXXXXXXXX",
"X X X X X X X X X X X X X X X X X X X X X X X XX",
"X. X .X .X .X .X .X .X .X .X .X .X .X .X .X .X X",
"XXXXXXXXXXXXXXXXXXXXXXXXXXXXXXXXXXXXXXXXXXXXXXXX",
};