/* XPM */
static char *_59fc902ff9140d0bd024c1988d8d74fUASlzmvIRdH3ANcB[] = {
/* columns rows colors chars-per-pixel */
"48 48 9 1 ",
"X c #0E071B",
"o c #817E86",
"O c #AEAAB6",
"+ c #CDCBD2",
"@ c #E6E0D6",
"# c white",
"  c #B86F50",
"1 c #D99359",
"2 c #E4A672",
/* pixels */
"222221111122222222221111122222222221111122222222",
"222111111111122211111111111122211111111111122222",
"221111      1111111111      1111111111      1112",
"21           1111            1111           1122",
"2                                            112",
"11                                            11",
"1                                              1",
"1                                              1",
"1                                              1",
"1                                              1",
"1                                              1",
"2                                            112",
"2                                            112",
"2                                            112",
"221                 XXXXXXX                  122",
"221                X+@@@@@+X                 122",
"221               X+@@@@@@@+X                122",
"221               X@@@@@@@@@X                122",
"2                 X@@@@@@@@@X                122",
"2                 X@@@@@@@@@X                122",
"2                 X+X@@@@@X+X                122",
"1                 X+XX@@@XX+X                  1",
"1                 XO+O+O+O+OX                  1",
"1                  XOXOXOXOX                   1",
"1                   XXXXXXX                    1",
"1                  XX@oXOoXX                   1",
"1                 X@@X@XoX@@X                  1",
"2                 X@@+oXOo@@X                112",
"2                  XXXXXXXXX                 112",
"2                   X@@XooX                  112",
"221                 X@+XOoX                  112",
"221                 X@+XOoX                  112",
"221                                          112",
"221                                          112",
"2                                            112",
"2                                            112",
"2                                            112",
"1                                              1",
"1                                              1",
"1                                              1",
"1                                              1",
"1                                              1",
"1                                              1",
"2                                            112",
"2                                            112",
"221           1111            1111           122",
"222111      111222111      111222111      112222",
"222221111122222222221111122222222221111122222222",
"222221111122222222221111122222222221111122222222",
};
