/* XPM */
static char *fd6d8283b2244e50d0d59753e7dfc049XFG4lwa58WJ7uiTG[] = {
/* columns rows colors chars-per-pixel */
"48 48 53 1 ",
"  c #B86F50",
". c black",
"X c #0E071B",
"o c #3F2832",
"O c #612A0A",
"+ c #5D2C28",
"@ c #7A2934",
"# c #743F39",
"$ c #724B3B",
"% c #262B44",
"& c #134C4C",
"* c #265C42",
"= c #3C4258",
"- c #1E6F50",
"; c #424C6E",
": c #891E2B",
"> c #C42430",
", c #C62A37",
"< c #95420F",
"1 c #D99359",
"2 c #E4A672",
"3 c #D45608",
"4 c #DD5A08",
"5 c #ED7614",
"6 c #F77622",
"7 c #BF6F4A",
"8 c #B86F50",
"9 c #D84650",
"0 c #3E8948",
"q c #33984B",
"w c #50AF5D",
"e c #5AC54F",
"r c #FFA214",
"t c #FEAE34",
"y c #FFC825",
"u c #E69C69",
"i c #E4A672",
"p c #FFEB57",
"a c #D3FC7E",
"s c #FEE761",
"d c #657392",
"f c #6C7C9D",
"g c #8E9AB4",
"h c #92A1B9",
"j c #F68187",
"k c #EBA2A9",
"l c #F6CA9F",
"z c #FEF09F",
"x c #EAD4AA",
"c c #C0CBDC",
"v c gray83",
"b c #F9E6CF",
"n c #FFF7D2",
/* pixels */
"222221111122222222221111122222222221111122222222",
"222111111111122211111111111122211111111111122222",
"221111      1111111111      1111111111      1112",
"21           1111            1111           1122",
"2                                            112",
"11                                            11",
"1                                              1",
"1                                              1",
"1                                              1",
"1                                              1",
"1                                              1",
"2                                            112",
"2                                            112",
"2                                            112",
"221                                          122",
"221                                          122",
"221                                          122",
"221                                          122",
"2                                            112",
"2                        oo                  112",
"2                       onno                 112",
"1                 ooo  onssno oo               1",
"1                 onnoonssn4oono               1",
"1                 onstotnn44onso               1",
"1                 onttottn44oto                1",
"1                  ontottn44oooo               1",
"1                   onosts44onno               1",
"1                  ooootsn4otsno               1",
"2                  onnotts4otno                1",
"2                  osnsotnotnto                1",
"2                   otsotsotto                 1",
"221                                          112",
"221                                          112",
"221                                          122",
"221                                          122",
"2                                            112",
"2                                            112",
"2                                            112",
"1                                              1",
"1                                              1",
"1                                              1",
"1                                              1",
"1                                              1",
"1                                              1",
"2                                            112",
"2                                            112",
"221           1111            1111           122",
"222111      111222111      111222111      112222",
"222221111122222222221111122222222221111122222222",
};
